X:1070
T:Ballintra Lass, The
T:Lass of Ballintray, The
R:reel
D:Tommy Keane: The Piper's Apron
Z:id:hn-reel-443
M:C|
K:G
~G3B dGBd|edBG AGED|~G3B dGBd|gbaf gedB:|
|:dg~g2 bg~g2|a2bg ageg|1 dg~g2 bggf|gbag efge:|2 bgaf gfed|(3efg fa gedB||


